X:119
T:A Waltz
O:No 119 Wm Clarke MS  Feltwell, Norfolk
I:abc2nwc
M:3/4
L:1/8
K:D
A2|d2A4|f2d4|ag fe dc|d2f2A2|
d2A4|f2d4|ag fe dc|d4:|
|:(ef)|g2e2e2|e4fg|a2f2f2|f4ef|
g2e2e2|f2d2d2|e2ed ef|d4:|

